resources/svg/file-shield-line.svg

<svg fill="currentColor" viewBox="0 0 24 24" xmlns="http://www.w3.org/2000/svg"><path d="M14 8V4H5V20H19V9H16V13.6195C16 14.4641 15.5544 15.2529 14.8125 15.7215L12 17.4978L9.18747 15.7215C8.4456 15.2529 8 14.4641 8 13.6195V8H14ZM21 8V20.9932C21 21.5501 20.5552 22 20.0066 22H3.9934C3.44495 22 3 21.556 3 21.0082V2.9918C3 2.45531 3.4487 2 4.00221 2H14.9968L21 8ZM10 13.6195C10 13.7698 10.0872 13.9242 10.2554 14.0305L12 15.1323L13.7446 14.0305C13.9128 13.9242 14 13.7698 14 13.6195V10H10V13.6195Z"/></svg>

<svg xmlns="http://www.w3.org/2000/svg" viewBox="0 0 24 24" fill="currentColor">
    <g>
        <path fill="none" d="M0 0h24v24H0z"/>
        <path fill-rule="nonzero" d="M14 8V4H5v16h14V9h-3v4.62c0 .844-.446 1.633-1.187 2.101L12 17.498 9.187 15.72C8.446 15.253 8 14.464 8 13.62V8h6zm7 0v12.993A1 1 0 0 1 20.007 22H3.993A.993.993 0 0 1 3 21.008V2.992C3 2.455 3.449 2 4.002 2h10.995L21 8zm-11 5.62c0 .15.087.304.255.41L12 15.132l1.745-1.102c.168-.106.255-.26.255-.41V10h-4v3.62z"/>
    </g>
</svg>
